X:1
T:THE DOVE
M:2/4
Q:1/4=120
K:F
c2A2B2G2|F2A2c2f2|c2A2B2G2|F4F4|c2c2f2c2|
d2e2f2d2|c2A2B2G2|F4F4|c2c2f2c2|d2e2f2d2|
c2A2B2G2|F4F7/2||
